build/assets/images/content/turbo.svg

<svg width="512" height="202" fill="none" xmlns="http://www.w3.org/2000/svg"><path d="M501.637 78.85h-26.371c-7.172-24.956-23.903-48.923-50.277-48.923H176.578c-.456 0-.907.019-1.354.055-21.617.743-39.369 19.285-47.875 47.144H99.108a6.536 6.536 0 01-6.529-6.529V40.834C92.579 18.805 74.657.883 52.628.883H16.711C7.482.882 0 8.364 0 17.593c0 9.229 7.482 16.711 16.711 16.711h35.917a6.536 6.536 0 016.529 6.529v29.763c0 22.029 17.922 39.951 39.951 39.951h22.896c-.055 1.65-.089 3.311-.089 4.991 0 48.789 23.5 85.58 54.663 85.58.367 0 .731-.011 1.112-.03 2.47 0 246.274.006 247.529-.011.1.001.199.011.3.011 28.683 0 50.859-31.18 54.208-74.186h21.91c5.723 0 10.363-10.757 10.363-24.026 0-13.268-4.64-24.026-10.363-24.026zm-120.062 88.814H177.252v.001c-.162 0-.323.002-.485.007-.141.003-.283.01-.429.017-7.539-.411-21.004-20.135-21.004-52.152 0-32.356 13.753-52.159 21.242-52.159.344 0 .686-.01 1.025-.031h203.974c-7.581 15.923-10.723 34.662-10.723 52.159 0 17.468 3.132 36.216 10.723 52.158zm44.008-.004c-.06-.002-.118-.012-.178-.013-7.45-.186-21.129-20.122-21.129-52.14s13.679-51.955 21.129-52.14c.062-.001.123-.011.185-.013 3.952.065 9.609 5.579 14.083 15.496h-10.782c-5.723 0-10.363 10.757-10.363 24.026 0 13.268 4.639 24.026 10.363 24.026h17.276c-2.7 25.464-14.01 40.66-20.584 40.758z" fill="#333"/></svg>

<svg width="512" height="202" viewBox="0 0 512 202" fill="none" xmlns="http://www.w3.org/2000/svg">
<path d="M501.637 78.85H475.266C468.094 53.894 451.363 29.927 424.989 29.927H176.578C176.122 29.927 175.671 29.946 175.224 29.982C153.607 30.725 135.855 49.267 127.349 77.126H99.108C95.507 77.126 92.579 74.197 92.579 70.597V40.834C92.579 18.805 74.657 0.882996 52.628 0.882996H16.711C7.482 0.881996 0 8.364 0 17.593C0 26.822 7.482 34.304 16.711 34.304H52.628C56.229 34.304 59.157 37.233 59.157 40.833V70.596C59.157 92.625 77.079 110.547 99.108 110.547H122.004C121.949 112.197 121.915 113.858 121.915 115.538C121.915 164.327 145.415 201.118 176.578 201.118C176.945 201.118 177.309 201.107 177.69 201.088C180.16 201.088 423.964 201.094 425.219 201.077C425.319 201.078 425.418 201.088 425.519 201.088C454.202 201.088 476.378 169.908 479.727 126.902H501.637C507.36 126.902 512 116.145 512 102.876C512 89.608 507.36 78.85 501.637 78.85ZM381.575 167.664H177.252V167.665C177.09 167.665 176.929 167.667 176.767 167.672C176.626 167.675 176.484 167.682 176.338 167.689C168.799 167.278 155.334 147.554 155.334 115.537C155.334 83.181 169.087 63.378 176.576 63.378C176.92 63.378 177.262 63.368 177.601 63.347H381.575C373.994 79.27 370.852 98.009 370.852 115.506C370.852 132.974 373.984 151.722 381.575 167.664ZM425.583 167.66C425.523 167.658 425.465 167.648 425.405 167.647C417.955 167.461 404.276 147.525 404.276 115.507C404.276 83.489 417.955 63.552 425.405 63.367C425.467 63.366 425.528 63.356 425.59 63.354C429.542 63.419 435.199 68.933 439.673 78.85H428.891C423.168 78.85 418.528 89.607 418.528 102.876C418.528 116.144 423.167 126.902 428.891 126.902H446.167C443.467 152.366 432.157 167.562 425.583 167.66Z" fill="#333333"/>
</svg>
